svg/N_Arrows/19.svg

<?xml version="1.0" encoding="UTF-8" standalone="no"?>
<!-- Created with Inkscape (http://www.inkscape.org/) -->
<svg
   xmlns:dc="http://purl.org/dc/elements/1.1/"
   xmlns:cc="http://web.resource.org/cc/"
   xmlns:rdf="http://www.w3.org/1999/02/22-rdf-syntax-ns#"
   xmlns:svg="http://www.w3.org/2000/svg"
   xmlns="http://www.w3.org/2000/svg"
   xmlns:sodipodi="http://sodipodi.sourceforge.net/DTD/sodipodi-0.dtd"
   xmlns:inkscape="http://www.inkscape.org/namespaces/inkscape"
   width="744.09448819"
   height="1052.3622047"
   id="svg2"
   sodipodi:version="0.32"
   inkscape:version="0.44.1"
   sodipodi:docbase="F:\Qgis N_arrows"
   sodipodi:docname="rosa42.svg"
   inkscape:export-filename="F:\Qgis N_arrows\rosa42.png"
   inkscape:export-xdpi="300"
   inkscape:export-ydpi="300">
  <defs
     id="defs4" />
  <sodipodi:namedview
     id="base"
     pagecolor="#ffffff"
     bordercolor="#666666"
     borderopacity="1.0"
     inkscape:pageopacity="0.0"
     inkscape:pageshadow="2"
     inkscape:zoom="0.98994949"
     inkscape:cx="375"
     inkscape:cy="720.78108"
     inkscape:document-units="px"
     inkscape:current-layer="layer1"
     showgrid="true"
     inkscape:window-width="1280"
     inkscape:window-height="744"
     inkscape:window-x="-4"
     inkscape:window-y="-4" />
  <metadata
     id="metadata7">
    <rdf:RDF>
      <cc:Work
         rdf:about="">
        <dc:format>image/svg+xml</dc:format>
        <dc:type
           rdf:resource="http://purl.org/dc/dcmitype/StillImage" />
      </cc:Work>
    </rdf:RDF>
  </metadata>
  <g
     inkscape:label="Livello 1"
     inkscape:groupmode="layer"
     id="layer1">
    <rect
       style="fill:white;fill-opacity:1;stroke:black;stroke-width:3.33699989;stroke-miterlimit:4;stroke-dasharray:none;stroke-opacity:1"
       id="rect10945"
       width="2.1465743"
       height="0"
       x="-1710.7015"
       y="549.28674" />
    <g
       id="g4172">
      <g
         transform="matrix(5.373307,0,0,5.188327,-1811.917,-2360.821)"
         id="g2794">
        <path
           sodipodi:type="arc"
           style="opacity:0.97000002;fill:none;fill-opacity:1;stroke:black;stroke-width:2.9000001;stroke-miterlimit:4;stroke-dasharray:none;stroke-opacity:1"
           id="path1872"
           sodipodi:cx="357.99106"
           sodipodi:cy="536.60327"
           sodipodi:rx="14.955358"
           sodipodi:ry="14.955358"
           d="M 372.94642 536.60327 A 14.955358 14.955358 0 1 1  343.0357,536.60327 A 14.955358 14.955358 0 1 1  372.94642 536.60327 z" />
        <path
           style="fill:none;fill-rule:evenodd;stroke:black;stroke-width:1px;stroke-linecap:butt;stroke-linejoin:miter;stroke-opacity:1"
           d="M 345,532.36218 C 362,522.36218 362,522.36218 362,522.36218 L 362.41072,523.36218"
           id="path2760" />
        <path
           style="fill:none;fill-rule:evenodd;stroke:black;stroke-width:1px;stroke-linecap:butt;stroke-linejoin:miter;stroke-opacity:1"
           d="M 345,541.82647 C 368,526.36218 368,526.36218 368,526.36218"
           id="path2762" />
        <path
           style="fill:none;fill-rule:evenodd;stroke:black;stroke-width:1px;stroke-linecap:butt;stroke-linejoin:miter;stroke-opacity:1"
           d="M 349,548.36218 L 372,532.36218"
           id="path2764" />
        <path
           style="fill:none;fill-rule:evenodd;stroke:black;stroke-width:1px;stroke-linecap:butt;stroke-linejoin:miter;stroke-opacity:1"
           d="M 359,550.36218 C 372,540.36218 372,540.36218 372,540.36218"
           id="path2766" />
        <path
           style="fill:none;fill-rule:evenodd;stroke:black;stroke-width:1.04042327px;stroke-linecap:butt;stroke-linejoin:miter;stroke-opacity:1"
           d="M 371.69407,539.87768 C 358.02021,522.38239 358.02021,522.38239 358.02021,522.38239"
           id="path2768" />
        <path
           style="fill:none;fill-rule:evenodd;stroke:black;stroke-width:1px;stroke-linecap:butt;stroke-linejoin:miter;stroke-opacity:1"
           d="M 350,525.36218 C 367,548.36218 367,548.36218 367,548.36218"
           id="path2770" />
        <path
           style="fill:none;fill-rule:evenodd;stroke:black;stroke-width:1.01753926px;stroke-linecap:butt;stroke-linejoin:miter;stroke-opacity:1"
           d="M 344.18734,530.22809 C 358.90194,550.28198 358.90194,550.28198 358.90194,550.28198 L 358.90194,550.28198"
           id="path2772" />
      </g>
      <g
         transform="matrix(5.373307,0,0,5.704256,-1971.648,-2809.513)"
         id="g2786">
        <path
           style="fill:none;fill-rule:evenodd;stroke:black;stroke-width:1px;stroke-linecap:butt;stroke-linejoin:miter;stroke-opacity:1"
           d="M 385,552.36218 L 385,532.36218 L 380,532.36218 L 388,521.91575 L 395,532.36218 L 390,532.36218 L 390,552.36218 L 385,552.36218 z "
           id="path2774" />
        <path
           style="fill:none;fill-rule:evenodd;stroke:black;stroke-width:1px;stroke-linecap:butt;stroke-linejoin:miter;stroke-opacity:1"
           d="M 385,551.82647 L 389.55357,547.36218 L 389.55357,547.36218 L 389.55357,547.36218 L 389.46429,546.82647"
           id="path2776" />
        <path
           style="fill:none;fill-rule:evenodd;stroke:black;stroke-width:1px;stroke-linecap:butt;stroke-linejoin:miter;stroke-opacity:1"
           d="M 385,542.36218 L 389.55357,537.36218"
           id="path2778" />
        <path
           style="fill:none;fill-rule:evenodd;stroke:black;stroke-width:1px;stroke-linecap:butt;stroke-linejoin:miter;stroke-opacity:1"
           d="M 385,532.36218 L 391,526.36218"
           id="path2780" />
        <path
           style="fill:none;fill-rule:evenodd;stroke:black;stroke-width:1px;stroke-linecap:butt;stroke-linejoin:miter;stroke-opacity:1"
           d="M 389.55357,547.36218 L 385,542.36218"
           id="path2782" />
        <path
           style="fill:none;fill-rule:evenodd;stroke:black;stroke-width:1px;stroke-linecap:butt;stroke-linejoin:miter;stroke-opacity:1"
           d="M 385,542.36218 L 389,537.36218 L 382.58929,529.36218"
           id="path2784" />
      </g>
      <g
         transform="matrix(0,-5.188327,-9.152113,0,5245.939,2437.684)"
         id="g2804">
        <path
           style="fill:none;fill-rule:evenodd;stroke:black;stroke-width:1px;stroke-linecap:butt;stroke-linejoin:miter;stroke-opacity:1"
           d="M 385,552.36218 L 385,532.36218 L 380,532.36218 L 388,521.91575 L 395,532.36218 L 390,532.36218 L 390,552.36218 L 385,552.36218 z "
           id="path2806" />
        <path
           style="fill:none;fill-rule:evenodd;stroke:black;stroke-width:1px;stroke-linecap:butt;stroke-linejoin:miter;stroke-opacity:1"
           d="M 385,551.82647 L 389.55357,547.36218 L 389.55357,547.36218 L 389.55357,547.36218 L 389.46429,546.82647"
           id="path2808" />
        <path
           style="fill:none;fill-rule:evenodd;stroke:black;stroke-width:1px;stroke-linecap:butt;stroke-linejoin:miter;stroke-opacity:1"
           d="M 385,542.36218 L 389.55357,537.36218"
           id="path2810" />
        <path
           style="fill:none;fill-rule:evenodd;stroke:black;stroke-width:1px;stroke-linecap:butt;stroke-linejoin:miter;stroke-opacity:1"
           d="M 385,532.36218 L 391,526.36218"
           id="path2812" />
        <path
           style="fill:none;fill-rule:evenodd;stroke:black;stroke-width:1px;stroke-linecap:butt;stroke-linejoin:miter;stroke-opacity:1"
           d="M 389.55357,547.36218 L 385,542.36218"
           id="path2814" />
        <path
           style="fill:none;fill-rule:evenodd;stroke:black;stroke-width:1px;stroke-linecap:butt;stroke-linejoin:miter;stroke-opacity:1"
           d="M 385,542.36218 L 389,537.36218 L 382.58929,529.36218"
           id="path2816" />
      </g>
      <flowRoot
         transform="translate(159.0077,125.7178)"
         style="font-size:56px;font-family:Arial Black"
         id="flowRoot2798"
         xml:space="preserve"><flowRegion
           id="flowRegion2800"><rect
             style="font-size:56px;font-family:Arial Black"
             y="270.93362"
             x="321.42856"
             height="74.285713"
             width="68.571426"
             id="rect2802" /></flowRegion><flowPara
           id="flowPara2804">E</flowPara></flowRoot>      <flowRoot
         transform="translate(-233.6978,-161.3578)"
         style="font-size:56px;font-family:Arial Black"
         id="flowRoot2790"
         xml:space="preserve"><flowRegion
           id="flowRegion2792"><rect
             style="font-size:56px;font-family:Arial Black"
             y="270.93362"
             x="321.42856"
             height="74.285713"
             width="68.571426"
             id="rect2794" /></flowRegion><flowPara
           id="flowPara2796">N</flowPara></flowRoot>    </g>
  </g>
</svg>

<svg xmlns="http://www.w3.org/2000/svg" viewBox="0 0 744.09 1052.36" xmlns:xlink="http://www.w3.org/1999/xlink"><g transform="matrix(5.37331 0 0 5.18833-1811.92-2360.82)" fill="none" stroke="#000"><path d="M372.94642 536.60327A14.955358 14.955358 0 1 1 343.0357 536.60327 14.955358 14.955358 0 1 1 372.94642 536.60327z" opacity=".97" stroke-width="2.9"/><g fill-rule="evenodd"><path d="m345 532.36c17-10 17-10 17-10l.411 1"/><path d="m345 541.83c23-15.464 23-15.464 23-15.464"/><path d="m349 548.36l23-16"/><path d="m359 550.36c13-10 13-10 13-10"/><path d="m371.69 539.88c-13.674-17.495-13.674-17.495-13.674-17.495" stroke-width="1.04"/><path d="m350 525.36c17 23 17 23 17 23"/><path d="m344.19 530.23c14.715 20.05 14.715 20.05 14.715 20.05" stroke-width="1.018"/></g></g><g transform="matrix(5.37331 0 0 5.70426-1971.65-2809.51)"><path d="m385 552.36v-20h-5l8-10.446 7 10.446h-5v20h-5z" fill="none" fill-rule="evenodd" stroke="#000" id="0"/><path d="m385 551.83l4.554-4.464-.089-.536" fill="none" fill-rule="evenodd" stroke="#000" id="1"/><path d="m385 542.36l4.554-5" fill="none" fill-rule="evenodd" stroke="#000" id="2"/><path d="m385 532.36l6-6" fill="none" fill-rule="evenodd" stroke="#000" id="3"/><path d="m389.55 547.36l-4.554-5" fill="none" fill-rule="evenodd" stroke="#000" id="4"/><path d="m385 542.36l4-5-6.411-8" fill="none" fill-rule="evenodd" stroke="#000" id="5"/></g><g transform="matrix(0-5.18833-9.15211 0 5245.94 2437.68)"><use xlink:href="#0"/><use xlink:href="#1"/><use xlink:href="#2"/><use xlink:href="#3"/><use xlink:href="#4"/><use xlink:href="#5"/></g><g font-family="Arial Black" font-size="56"><flowRoot transform="translate(159.01 125.72)"><flowRegion><path d="m321.43 270.93h68.57v74.28h-68.57z" id="6"/></flowRegion><flowPara>E</flowPara></flowRoot><flowRoot transform="translate(-233.7-161.36)"><flowRegion><use xlink:href="#6"/></flowRegion><flowPara>N</flowPara></flowRoot></g></svg>
